!!!!SEGMENT: pl-wn--mus-iii-123-982--008_wieniawski-henryk--l-ecole-moderne-etudes-caprices-pour-violon-seul-op-10-8-le-chant-du-bivouac.krn
!!!cenid: 18xx:3821
!!!COM: Wieniawski, Henryk
!!!COM-rismID: pe137176
!!!CDT: 1835/07/10-1880/03/31
!!!CNT:
!!!GTL: L'école moderne.Etudes-caprices pour violon seul op. 10
!!!OTL: 8. Le chant du bivouac
!!!OMV: 008
!!!PDT:
!!!AGN:
!!!SMS-siglum: PL-Wn
!!!SMS-shelfmark: Mus.III.123.982
!!!SMS-shelfwork: 001-008 G
!!!SMS-variant:
!!!SMS-altvar:
!!!NIFC-rismSourceID:
!!!NIFC-rismChildID:
!!!NIFC-islandoraID: none
!!!URL-pdf-islandora:
!!!URL-scan: https://polona.pl/item/l-ecole-moderne-etudes-caprices-pour-violon-seul-op-10,MTE2OTgzMTMy/4 @EN{Scan on Polona} @PL{Skany w portalu Polona}
!!!IIIF: https://polona.pl/iiif/item/MTE2OTgzMTMy/manifest.json
!!!ONB-nifc:
!!!OMD: Allegro marziale.
!!!AIN: 1 violn
!!!key: A
**kern	**fing
*I"Violon.	*
*Ivioln	*
*ICstr	*
*clefG2	*
*kcancel	*
*k[f#c#g#]	*
*A:	*
*M6/8	*
=1	=1
*xywh-18:383,407,3594,1239	*
!LO:TX:a:i:t=Sul D _ A:dur=10qe:ext=ud:problem:text with extention lines	!
4ee 4cc# 4a\	0
8ccc# 8aa 8ee\	0 4 2
4ccc# 4aa 4ee\	0
8ee 8cc# 8a\	0
=2	=2
8eeL 8b 8g#`u\	.
[16eeL 16dd 16bu\	.
16ee]J 16ee 16cc#\	.
8ff#J 8ee 8dd\	.
[16eeLL 16ee 16cc#\	.
16ee]J 16dd#X 16b#X\	.
8ee 8ee 8cc#\	.
8eeJ 8cc# 8au\	.
=3	=3
4ee 4a 4f#u\	.
8aa 8ff# 8ee\	.
4aa 4ff# 4ee\	.
!LO:TX:t=P:problem:up-bow symbol inverted:global	!
8ee 8a 8f#v\	.
=4	=4
8eeL 8f# 8Bu/	.
16dd#XL [16f#u/	.
16cc#J 16f#]/	.
8dd#J 8f#/	.
(16eeLL 16b 16e 16G#\	.
16dddnJ 16ff#\)	.
8ccc# 8ee\	.
8bbnJ 8ddnu\	.
=5	=5
!LO:TX:a:i:t=Sul D. A:dur=10qe:ext=ud:problem:text with extention lines	!
(<8qA/	.
4ee 4cc# 4au\)	.
8ccc# 8aa 8ee\	.
4ccc# 4aa 4ee\	.
8ee 8cc# 8a\	.
!!LO:LB:g=original
=6	=6
*xywh-18:456,1566,3499,554	*
8eeL 8b 8g#u\	.
[16eeL 16dd 16bu\	.
16ee]J 16ee 16cc#\	.
8ff#J 8ee 8dd\	.
[16eeLL 16ee 16cc#\	.
16ee]J 16dd#X 16b#X\	.
8ee 8ee 8cc#\	.
8eeJ 8cc# 8au\	.
=7	=7
4ee 4a 4f#u\	.
8aa 8ff# 8ee\	.
4aa 4ff# 4ee\	.
8ee 8a 8f#\	.
=8	=8
8eeL 8a 8f# 8Bu/	.
(16dd#XL 16f#u/	.
16cc#J 16f#/)	.
8dd#J 8f#/	.
(16eeLL 16b 16e 16G#\	.
!LO:N:n=2:vis=1	!
16bbbJ 16bbr 16eeryy\)	.
!LO:N:n=2:vis=1	!
8eeee 8aar 8eeryy\	.
8ev\J	.
=9	=9
!LO:TX:a:i:t=Sul D. A:dur=4qe:ext=ud:problem:text with extention lines	!
4ee 4b 4g#\	0
8bb 8gg# 8ee\	0
4bb 4gg# 4ee\	0
8ee 8b 8g#\	0
=10	=10
[16eeLL 16cc# 16a\	.
16ee]J 16dd 16b\	.
8ee 8ee 8cc#\	.
[16eeL 16dd 16b\	.
16ee]JJ 16cc# 16a\	.
[16eeLL 16b 16g#\	.
16ee]J 16a#X 16f##X\	.
8ee 8b 8g#\	.
!LO:N:n=2:vis=1	!
8eeeeJ 8aar 8eeryy\	.
!!LO:LB:g=original
=11	=11
*xywh-18:361,2033,3630,517	*
!LO:TX:a:i:t=Sul D. A:dur=9es:ext=ud:problem:text with extention lines	!
4ee 4b 4g#\	.
8bb 8gg# 8ee\	.
4bb 4gg# 4ee\	.
8ee 8b 8g#\	.
=12	=12
[16eeLL 16cc# 16a\	.
16ee]J 16dd 16b\	.
8ee 8ee 8cc#\	.
[16eeL 16dd 16b\	.
16ee]JJ 16cc# 16a\	.
[16eeLL 16b 16g#\	.
16ee]J 16a#X 16f##X\	.
8ee 8b 8g#\	.
!LO:N:n=2:vis=1	!
8bbbJ 8bbr 8eeryy\	.
=13	=13
([16eeLL 16b 16g#\	.
16ee]J 16a#X 16f##X\	.
8ee 8b 8g#\)	.
!LO:N:n=2:vis=1	!
8eeeeJ 8aar 8eeryy\	.
([16eeLL 16b 16g#\	.
16ee]J 16a# 16f##\	.
8ee 8b 8g#\)	.
!LO:N:n=2:vis=1	!
8gggg#J 8gg#r 8eeryy\	.
=14	=14
*^	*
4.e/ 4.e	4.ryy	.
4.e/	(>16e\LL	.
.	16f#\	.
.	16e\	.
.	16d\	.
.	16c#\	.
.	16B\JJ)	.
*v	*v	*
=15	=15
!LO:TX:a:i:t=Sul D.A:dur=6q:ext=ud:problem:text with extention lines	!
4ee 4cc# 4a 4A/	.
8ccc# 8aa 8ee\	.
4ccc# 4aa 4ee\	.
8ee 8cc# 8a\	.
!!LO:LB:g=original
=16	=16
*xywh-18:463,2485,3587,568	*
8eeL 8b 8g#u\	.
[16eeL 16dd 16bu\	.
16ee]J 16ee 16cc#\	.
8ff#J 8ee 8dd\	.
[16eeLL 16ee 16cc#\	.
16ee]J 16dd#X 16b#X\	.
8ee 8ee 8cc#\	.
8eeJ 8cc# 8au\	.
=17	=17
!LO:TX:a:i:t=Segue	!
4ee 4a 4f#\	.
8aa 8ff# 8ee\	.
4aa 4ff# 4ee\	.
8ee 8a 8f#\	.
=18	=18
8eeL 8a 8f# 8Bu/	.
16dd#XL [16f#u/	.
16cc#J 16f#]/	.
8dd#J 8f#/	.
(16eeLL 16b 16e 16G#\	.
16dddnJ 16ff#\)	.
8ccc# 8ee\	.
8bbJ 8ddnu\	.
=19	=19
!LO:TX:a:i:t=Sul D. A:dur=10qe:ext=ud:problem:text with extention lines	!
(8qA/	.
4ee 4cc# 4au\)	.
8ccc# 8aa 8ee\	.
4ccc# 4aa 4ee\	.
8ee 8cc# 8a\	.
=20	=20
(16eeLL 16a#X 16f#\	.
16ff#J 16a#\)	2
8ggn 8a#\	.
(16ff#L 16a#\	.
16eeJJ 16a#\)	.
(16ddLL 16f# 16B/	.
16A#X/J)	.
8dd 8f# 8B/	.
8ddJ 8fn 8An/	.
!!LO:LB:g=original
=21	=21
*xywh-18:383,2908,3623,568	*
(16ddLL 16e 16G#/	.
16ee/JJ)	.
8bbL 8dd\	.
8bb#XJ 8dd#X\	.
(16ccc#LL 16ee\	.
16aa 16cc#\)	.
16ee 16cc#`\	.
16cc# 16a`\	.
16a 16e`\	.
16eJJ 16c#`\	.
=22	=22
(16cc#LL 16e\	.
16eeJJ 16cc#\)	.
8eeeev\L	.
8gg#J 8dd 8eu\	.
8aaL 8cc# 8e 8Au\	.
16ff#L 16ddv\	.
!LO:TX:a:t=+	!
16a\	.
16ggn 16eev\	.
!LO:TX:a:t=+	!
16a\JJ	.
=23	=23
!LO:TUP:a:problem:klamra łukowa	!
24ff#LL 24dd\	.
24ggn 24ee\	.
24ff#J 24dd\	.
(8ee 8cc#'\	.
8a'\J)	.
8r	.
16ggLL 16eev\	.
!LO:TX:a:t=+	!
16a\	.
16aa 16ff#v\	.
!LO:TX:a:t=+	!
16a\JJ	.
=24	=24
!LO:TUP:a:problem:klamra łukowa	!
24ggnLL 24ee\	.
24aa 24ff#\	.
24ggJ 24ee\	.
8ff# 8dd\	.
8a\J	.
8r	.
16aaLL 16ff#v\	.
16a\	.
16fff# 16aa\	.
16a\JJ	.
=25	=25
16fff#LL 16ggn\	.
16a\	.
16eee 16gg\	.
16a\	.
16ccc# 16ee\	.
16a\JJ	.
16eeeLL 16ff#\	.
16a\	.
16ddd 16ff#\	.
16a\	.
16ff# 16dd\	.
16a\JJ	.
!!LO:LB:g=original
=26	=26
*xywh-18:390,3381,3609,488	*
!LO:TUP:a:problem:klamra łukowa	!
24ff#LL 24dd\	.
24ggn 24ee\	.
24ff#J 24dd\	.
8ee 8cc#`\	.
8a`\J	.
8r	.
16ff#LL 16ddv\	.
!LO:TX:a:t=+	!
16a\	.
16gg 16eev\	.
!LO:TX:a:t=+	!
16a\JJ	.
=27	=27
!LO:TUP:a:problem:klamra łukowa	!
24ff#LL 24dd\	.
24ggn 24ee\	.
24ff#J 24dd\	.
8ee 8cc#`\	.
8a`\J	.
8r	.
16ggLL 16eev\	.
!LO:TX:a:t=+	!
16a\	.
16aa 16ff#v\	.
!LO:TX:a:t=+	!
16a\JJ	.
=28	=28
!LO:TUP:a:problem:klamra łukowa	!
24ggnLL 24ee\	.
24aa 24ff#\	.
24ggJJ 24ee\	.
8ff#L 8dd\	.
8a\J	.
8r	.
16aaLL 16ff#v\	.
!LO:TX:a:t=+	!
16a\	.
16bb 16ff#v\	.
!LO:TX:a:t=+	!
16a\JJ	.
=29	=29
!LO:TX:t=P:problem:mixed beam	!
8.ccc#L 8.ee#X`u\	.
(16ccc#K 16ee#u\	.
8c#/J)	.
8r	.
16aaLL 16ff#v\	.
!LO:TX:a:t=+	!
16a\	.
16bb 16ff#v\	.
!LO:TX:a:t=+	!
16a\JJ	.
=30	=30
!LO:TX:t=P:problem:mixed beam	!
8.ccc#L 8.ee#X\	.
(16ccc#K 16ee#\	.
8c#/J)	.
8r	.
16ff#LL 16ddv\	.
16a\	.
16ggn 16eenv\	.
16a\JJ	.
!!LO:LB:g=original
=31	=31
*xywh-18:390,3834,3623,473	*
!LO:TUP:a:problem:klamra łukowa	!
24ff#LL 24dd\	.
24ggn 24ee\	.
24ff#J 24dd\	.
8ee 8cc#`\	.
8a`\J	.
8r	.
16ggLL 16ee\	.
!LO:TX:a:t=+	!
16a\	.
16aa 16ff#\	.
!LO:TX:a:t=+	!
16a\JJ	.
=32	=32
!LO:TUP:a:problem:klamra łukowa	!
24ggnLL 24ee\	.
24aa 24ff#\	.
24ggJJ 24ee\	.
8ff#L 8dd\	.
8a\J	.
8r	.
16aaLL 16ff#\	.
16a\	.
16fff# 16aa\	.
16a\JJ	.
=33	=33
16fff#LL 16ggn\	.
16a\	.
16eee 16gg\	.
16a\	.
16ccc# 16ee\	.
16a\JJ	.
16eeeLL 16ff#\	.
16a\	.
16ddd 16ff#\	.
16a\	.
16ff# 16dd\	.
16a\JJ	.
=34	=34
!LO:TUP:a:problem:klamra łukowa	!
24ff#LL 24dd\	.
24ggn 24ee\	.
24ff#J 24dd\	.
8ee 8cc#\	.
8a\J	.
8r	.
16ff#LL 16dd\	.
!LO:TX:a:t=+	!
16a\	.
16gg 16ee\	.
!LO:TX:a:t=+	!
16a\JJ	.
!!LO:LB:g=original
=35	=35
*xywh-18:390,4271,3667,780	*
!LO:TX:b:i:t=+ pizzicato main gauche.	!
!LO:TUP:a:problem:klamra łukowa	!
24ff#LL 24dd\	.
24ggn 24ee\	.
24ff#J 24dd\	.
8ee 8cc#\	.
8a\J	.
8r	.
16ggLL 16ee\	.
!LO:TX:a:t=+	!
16a\	.
16aa 16ff#\	.
!LO:TX:a:t=+	!
16a\JJ	.
=36	=36
!LO:TUP:a:problem:klamra łukowa	!
24ggnLL 24ee\	.
24aa 24ff#\	.
24ggJ 24ee\	.
8ff# 8dd\	.
8a\J	.
8r	.
16aaLL 16ff#\	.
!LO:TX:a:t=+	!
16a\	.
16bb 16ff#\	.
!LO:TX:a:t=+	!
16a\JJ	.
=37	=37
!LO:TX:t=P:problem:mixed beam	!
8.ccc#L 8.ee#Xu\	.
(16ccc#K 16ee#u\	.
8c#/J)	.
8r	.
16aaLL 16ff#\	.
!LO:TX:a:t=+	!
16a\	.
16bb 16ff#\	.
!LO:TX:a:t=+	!
16a\JJ	.
=38	=38
*^	*
!LO:TX:t=P:problem:mixed beam	!	!
8.ccc#L 8.ee#Xu\	4.ryy	.
(16ccc#K 16ee#u\	.	.
8c#/J)	.	.
4.en/	(>16e\LL	.
.	16f#\	.
.	16e\	.
.	16d\	.
.	16c#\	.
.	16B\JJ)	.
*v	*v	*
=39	=39
4ee 4cc# 4a 4A/	.
8ccc# 8aa 8ee\	.
4ccc# 4aa 4ee\	.
8ee 8cc# 8a\	.
!!LO:PB:g=original
=40	=40
*xywh-19:192,418,3653,782	*
8eeL 8b 8g#\	.
[16eeL 16dd 16b\	.
16ee]J 16ee 16cc#\	.
8ff#J 8ee 8dd\	.
[16eeLL 16ee 16cc#\	.
16ee]J 16dd#X 16b#X\	.
8ee 8ee 8cc#\	.
8eeJ 8cc# 8a\	.
=41	=41
4ee 4a 4f#\	.
8aa 8ff# 8ee\	.
4aa 4ff# 4ee\	.
8ee 8a 8f#\	.
=42	=42
8eeL 8f# 8B/	.
(16dd#XL 16f#/	.
16cc#J 16f#/)	.
8dd#J 8f#/	.
(16eeLL 16b 16e 16G#\	.
16dddnJ 16ff#\)	.
8ccc# 8ee\	.
8bbJ 8ddn\	.
=43	=43
4ee 4cc# 4a\	.
8ccc# 8aa 8ee\	.
4ccc# 4aa 4ee\	.
8ee 8cc# 8a\	.
=44	=44
(16eeLL 16a#X 16f#\	.
16ff#J 16a#\)	.
8ggn 8a#\	.
(16ff#L 16a#\	.
16eeJJ 16a#\)	.
(16ddLL 16f# 16B/	.
16A#X/J)	.
8dd 8f# 8B/	.
8ddJ 8fn 8An/	.
!!LO:LB:g=original
=45	=45
*xywh-19:149,1085,3587,492	*
(16ddLL 16e 16G#/	.
16ee/JJ)	.
8bbL 8dd\	.
8bb#XJ 8dd#X\	.
(16ccc#LL 16ee\	.
16aa 16cc#\)	.
16ee 16cc#`\	.
16cc# 16a`\	.
16a 16e`\	.
16eJJ 16c#`\	.
=46	=46
(16cc#LL 16e/	.
16eeJJ 16cc#/)	.
!LO:N:n=2:vis=1	!
8eeeeL 8aar 8eeryy\	.
8gg#J 8dd 8eu\	.
(8qA/	.
32aaLLL 32cc#u/)	.
(32aaJ 32cc#'/	.
16eJJ 16A'/)	.
4r	.
=47||	=47||
!!!OMD: Poco più lento.
!!!key: G
*k[f#]	*
!LO:TX:b:i:t=Sul G &amp; D.	!
(4d/ 4d	.
8dd\) 8dd	.
(>4dd 4d/	.
8d/) 8d	.
=48	=48
(16dLL 16c#X/	.
16d/J) 16d	.
8e 8d/	.
(16d/L 16d	.
16dJJ 16cn/)	.
(16dLL 16B/	.
16d/) 16d	.
8qd/	.
16d 16c/	.
16d 16B/	.
16d 16c/	.
16dJJ 16A/	.
=49	=49
(4gg 4b 4d 4G/	.
8ggg 8bb\)	.
(4ggg 4bb\	.
8G/)	.
!!LO:LB:g=original
=50	=50
*	*^
*xywh-19:149,1513,3551,492	*	*
8ee 8b 8e 8G#X/	.	.
16bbLL 16dd\	.	.
16ddd 16ffn\	.	.
16fffn 16gg#X\	.	.
16eeeJJ 16ggn 16b-X\	3_ 4_	2_
16ddd#XLL 16ff#X 16a\	_ _	_
16dddn 16ffn 16g#X\	_ _	_
16ccc#X 16ee 16gn\	_ _	_
16cccn 16dd#X 16f#X\	_ _	_
16bb 16ddn 16fn\	_ _	_
16gg#XJJ 16dd 16eu\	.	.
*	*v	*v
=51	=51
(4aa 4ccn 4e 4Au/	.
8aaa 8cccn\)	.
(4aaa 4ccc\	.
8A/)	.
=52	=52
*	*^
8ccc#X 8ee 8gn 8A#X\	.	.
16ccc#LL 16ee\	.	.
16eeeJJ 16gg\	.	.
16gggLL 16aa#X\	.	.
16fff#JJ 16aa# 16ccn\	3_ 4_	2_
16eee#XLL 16gg#X 16b\	_ _	_
16eeen 16ggn 16a#X\	_ _	_
16ddd#X 16ff# 16g##X\	_ _	_
16ccc##X 16ee#X 16g#X\	_ _	_
!LO:N:n=1:acc=n#	!	!
16ccc#X 16een 16gn\	_ _	_
16aa#XJJ 16ee 16f#u\	.	.
*	*v	*v
=53	=53
(4bb 4dd 4f# 4B\	.
8bbb 8ddd\)	.
(4bbb 4ddd;\	.
8B/)	.
!!LO:LB:g=original
=54	=54
*xywh-19:127,1940,3602,434	*
!LO:TX:a:i:t=Sul G:dur=15h:ext=ud:problem:text with extention lines	!
!LO:TX:b:i:t=du talon.	!
16d/LL	.
16e/J	.
*	*below
8f#/	2
16g/L	1
16a/JJ	.
16b/LL	1
16cc/J	.
8dd/	.
16b/L	1
16g/JJ	3
=55	=55
((16f#/LL	.
16a/)J	.
(16c/L	.
16e/J))	.
8A/J	.
!LO:TX:t=P:problem:mixed beam	!
((16B/LL	.
16d/J)	.
8G/)	.
*	*Xbelow
8gg`\J	0
=56	=56
16d/LL	.
16e/J	.
8f#/	.
16g/L	.
16a/JJ	.
16b\LL	1
16cc\J	.
8dd\	1
16ee\L	2
16ff#\JJ	3
=57	=57
4.gg\	3
4.aa\	3
=58	=58
*	*below
2.bb;\	0 3
=59	=59
16d/LL	.
16e/J	.
8f#/	.
16g/L	.
16a/JJ	.
16b/LL	.
16cc/J	.
8dd/	.
16b/L	.
16g/JJ	.
!!LO:LB:g=original
=60	=60
*xywh-19:134,2310,3573,543	*
((16f#/LL	.
16a/)J	.
(16c/L	.
16e/J))	.
8A/J	.
!LO:TX:t=P:problem:mixed beam	!
((16B/LL	.
16d/J)	.
8G/)	.
*	*Xbelow
8gg\J	0
=61	=61
16d/LL	.
16e/J	.
8f#/	.
16g/L	.
16a/JJ	.
16b/LL	.
16cc/J	.
8dd/	.
16ee/L	.
16ff#/JJ	.
=62	=62
4.gg\	.
4.aa\	.
=63	=63
*	*below
2.bb;\	0 3
=64	=64
4aa 4cc 4d\	.
8aaa 8ccc 8d\	.
4aaa 4ccc 4d\	.
(16aaaLL 16bb 16d\	.
16gggJJ 16bb 16d\)	.
=65	=65
(16aaaLL 16bb 16d\	.
16ggg 16bb 16d\)	.
(16ggg 16aa 16d\	.
16fff# 16aa 16d\)	.
(16ggg 16aa 16d\	.
16fff#JJ 16aa 16d\)	.
(16fff#LL 16gg 16d\	.
16eee 16gg 16d\)	.
(16fff# 16gg 16d\	.
16eee 16gg 16d\)	.
(16eee 16ff# 16d\	.
16dddJJ 16ff# 16d\)	.
!!LO:LB:g=original
=66	=66
*xywh-19:134,2730,3573,529	*
(16eeeLL 16ff# 16d\	.
16ddd 16ff# 16d\)	.
(16ddd 16ee 16d\	.
16ccc 16ee 16d\)	.
(16ddd 16ee 16d\	.
16cccJJ 16ee 16d\)	.
(16cccLL 16dd 16d\	.
16bb 16dd 16d\)	.
(16bb 16cc#X 16d\	.
16aa 16cc# 16d\)	.
(16bb 16ccn 16d\	.
16aaJJ 16cc 16d\)	.
=67	=67
(4gg 4b 4d 4G/	.
8ggg 8bb\)	.
(4ggg 4bb\	.
8G/)	.
=68	=68
8ee 8b 8e 8G#X/	.
16bbLL 16dd\	.
16ddd 16ffn\	.
16fffn 16gg#X\	.
16eeeJJ 16ggn 16b-X\	.
16ddd#XLL 16ff#X 16a\	.
16dddn 16ffn 16g#X\	.
16ccc#X 16ee 16gn\	.
16cccn 16dd#X 16f#X\	.
16bbn 16ddn 16fn\	.
32gg#XJJk 32dd 32e\	.
32r;	.
=69||	=69||
!!!OMD: Tempo 1°.
!!!key: A
*k[f#c#g#]	*Xbelow
!LO:TX:b:i:t=Sul A. D.:dur=5q:ext=ud:problem:text with extention lines	!
4ee 4cc# 4a\	0
8ccc# 8aa 8ee\	0
4ccc# 4aa 4ee\	0
8ee 8cc# 8a\	0
!!LO:LB:g=original
=70	=70
*xywh-19:170,3173,3580,550	*
8eeL 8b 8g#`\	.
[16eeL 16dd 16b\	.
16ee]J 16ee 16cc#\	.
8ff#J 8ee 8dd\	.
[16eeLL 16ee 16cc#\	.
!LO:TX:a:i:t=Segue.	!
16ee]J 16dd#X 16b#X\	.
8ee 8ee 8cc#\	.
8eeJ 8cc# 8au\	.
=71	=71
4ee 4a 4f#\	.
8aa 8ff# 8ee\	.
4aa 4ff# 4ee\	.
8ee 8a 8f#\	.
=72	=72
8eeL 8a 8f# 8B/	.
16dd#XL [16f#/	.
16cc#J 16f#/]	.
8dd#J 8f#/	.
(16eeLL 16b 16e 16G#X\	.
16dddnJ 16ff#\)	.
8ccc# 8ee\	.
8bbJ 8ddn\	.
=73	=73
4ee 4cc# 4a 4A/	.
8ccc# 8aa 8ee\	.
4ccc# 4aa 4ee\	.
8ee 8cc# 8a\	.
=74	=74
8eeL 8b 8g#\	.
[16eeL 16dd 16b\	.
16ee]J 16ee 16cc#\	.
8ff#J 8ee 8dd\	.
[16eeLL 16ee 16cc#\	.
16ee]J 16dd#X 16b#X\	.
8ee 8ee 8cc#\	.
8eeJ 8cc# 8a\	.
!!LO:LB:g=original
=75	=75
*xywh-19:178,3528,3421,558	*
4ee 4a 4f#\	.
8aa 8ff# 8ee\	.
4aa 4ff# 4ee\	.
8ee 8a 8f#\	.
=76	=76
8eeL 8a 8f# 8B/	.
16dd#XL [16f#/	.
16cc#J 16f#]/	.
8dd#J 8f#/	.
(16eeLL 16b 16e 16G#\	.
!LO:N:n=2:vis=1	!
16bbbJJ 16bbr 16eeryy\)	.
!LO:N:n=2:vis=1	!
8eeeeL 8aar 8eeryy\	.
8e\J	.
=77	=77
4ee 4b 4g#\	.
8bb 8gg# 8ee\	.
4bb 4gg# 4ee\	.
8ee 8b 8g#\	.
=78	=78
[16eeLL 16cc# 16a\	.
16ee]J 16dd 16b\	.
8ee 8ee 8cc#\	.
[16eeL 16dd 16b\	.
16ee]JJ 16cc# 16a\	.
[16eeLL 16b 16g#\	.
16ee]J 16a#X 16f##X\	.
8eeJ 8b 8g#\	.
!LO:N:n=2:vis=1	!
8eeee 8aar 8eeryy\	.
=79	=79
4ee 4b 4g#\	.
8bb 8gg# 8ee\	.
4bb 4gg# 4ee\	.
8ee 8b 8g#\	.
=80	=80
[16eeLL 16cc# 16a\	.
16ee]J 16dd 16b\	.
8ee 8ee 8cc#\	.
[16eeL 16dd 16b\	.
16ee]JJ 16cc# 16a\	.
[16eeLL 16b 16g#\	.
16ee]J 16a#X 16f##X\	.
8ee 8b 8g#\	.
!LO:N:n=2:vis=1	!
8bbbJ 8bbr 8eeryy\	.
!!LO:LB:g=original
=81	=81
*xywh-19:149,3934,3384,565	*
([16eeLL 16b 16g#\	.
16ee]J 16a#X 16f##X\	.
8ee 8b 8g#\)	.
!LO:N:n=2:vis=1	!
8eeeeJ 8aar 8eeryy\	.
([16eeLL 16b 16g#\	.
16ee]J 16a# 16f##\	.
8ee 8b 8g#\)	.
!LO:N:n=2:vis=1	!
8gggg#J 8gg#r 8eeryy\	.
=82	=82
*^	*
4.e/ 4.e	4.ryy	.
4.e/	(>16e\LL	.
.	16f#\	.
.	16e\	.
.	16d\	.
.	16c#\	.
.	16B\JJ)	.
*v	*v	*
=83	=83
4ee 4cc# 4a 4A/	.
8ccc# 8aa 8ee\	.
4ccc# 4aa 4ee\	.
8ee 8cc# 8a\	.
=84	=84
8eeL 8b 8g#\	.
[16eeL 16dd 16b\	.
16ee]J 16ee 16cc#\	.
8ff#J 8ee 8dd\	.
[16eeLL 16ee 16cc#\	.
16ee]J 16dd#X 16b#X\	.
8ee 8ee 8cc#\	.
8eeJ 8cc# 8a\	.
=85	=85
4ee 4a 4f#\	.
8aa 8ff# 8ee\	.
4aa 4ff# 4ee\	.
8ee 8a 8f#\	.
!!LO:LB:g=original
=86	=86
*xywh-19:141,4339,3493,797	*
8eeL 8a 8f# 8B/	.
(16dd#XL [16f#/	.
16cc#J 16f#]/	.
8dd#J 8f#/	.
(16eeLL 16b 16e 16G#\	.
16dddnJ 16ff#\)	.
8ccc# 8ee\	.
8bbJ 8ddn\	.
=87	=87
4ee 4cc# 4a 4A/	.
8ccc# 8aa 8ee\	.
4ccc# 4aa 4ee\	.
8ee 8cc# 8a\	.
=88	=88
(16eeLL 16a#X 16f#\	.
16ff#J 16a#\)	.
8ggn 8a#\	.
(16ff#L 16a#\	.
16eeJJ 16a#\)	.
(16ddLL 16f# 16B/	.
16A#X/J)	.
8dd 8f# 8B/	.
8ddJ 8fn 8An/	.
=89	=89
(16ddLL 16e 16G#/	.
16ee/JJ)	.
8bbL 8dd\	.
8bb#XJ 8dd#X\	.
(16ccc#LL 16ee\	.
16aa 16cc#\)	.
16ee 16cc#`\	.
16cc# 16a`\	.
16a 16e`\	.
16eJJ 16c#`\	.
=90	=90
(16cc#LL 16e\	.
16eeJJ 16cc#\)	.
8eeee`\L	.
8gg#J 8dd 8eu\	.
(8qe 8qA/	.
32aaLLL 32cc#u/)	.
(32aaJ 32cc#'/	.
16A'/JJ)	.
4r;	.
==	==
*-	*-
!!LO:MO:ori
!!!RDF**kern: > = above
!!!RDF**kern: < = below
!!LO:MO:end
!!!filter-modern: sic -sq | autostem -r | shed -k -e "s/[<>]//g"  shed -e "s/TX(.*):t=P:/tx$1:t=P:/LG" | modori -m
!!!ENC: Andrzej Kubiczek
!!!END: 2022-05-08
!!!ENC: Andrzej Kubiczek
!!!END: 2022-05-14
!!!ENC-modern: Marta Lawrence
!!!END-modern: 2022-07-19
!!!ENC-iiif: Natalia Wrzos
!!!END-iiif: 2022-08-30
!!!YEC: Copyright 2022 Narodowy Instytut Fryderyka Chopina (https://polishscores.org)
!!!YEM: License CC-BY-4.0 (https://creativecommons.org/licenses/by/4.0)
